X: 1
T:Trunkles, Kirtlington
M:4/4
L:1/8
Q:1/4=120
A:Kirtlington
P:A(AB3C3)4
K:G
P:A
|:d3c  B2d2|c2B2 A2G2|d3c B2d2|cBAG G3:|
P:B
B|d2d2 d2ef|gfge d2g2|a2ed A2Bc|d3e d3||
P:C
g|e2c2 cdef|d2B2 B3d |c2A2 ABcd|B2G2 G2AB|cBAG F2AB|G3A G3||
